icon-svg/rooms-living.svg

<svg xmlns="http://www.w3.org/2000/svg" fill="#44739e" viewBox="0 0 24 24"><path d="M28 13c1.104 0 2 .896 2 2v6.064a.936.936 0 0 1-.936.936H28v1c0 1.104-.896 2-2 2s-2-.896-2-2v-1H8v1c0 1.104-.896 2-2 2s-2-.896-2-2v-1H2.936A.936.936 0 0 1 2 21.064V15c0-1.104.896-2 2-2s2 .896 2 2v2h20v-2c0-1.104.896-2 2-2M8 15c0-2.209-1.791-4-4-4V9c0-1.104.896-2 2-2h20c1.104 0 2 .896 2 2v2c-2.209 0-4 1.791-4 4z"/></svg>

<?xml version="1.0" encoding="UTF-8"?>
<svg width="32px" height="32px" viewBox="0 0 32 32" version="1.1" fill="#44739e" xmlns="http://www.w3.org/2000/svg" xmlns:xlink="http://www.w3.org/1999/xlink">
            <path d="M28,13 C29.104,13 30,13.896 30,15 L30,17.064 L30,19.064 L30,21.064 C30,21.581 29.581,22 29.064,22 L28,22 L28,23 C28,24.104 27.104,25 26,25 C24.896,25 24,24.104 24,23 L24,22 L8,22 L8,23 C8,24.104 7.104,25 6,25 C4.896,25 4,24.104 4,23 L4,22 L2.936,22 C2.419,22 2,21.581 2,21.064 L2,19.064 L2,17.064 L2,15 C2,13.896 2.896,13 4,13 C5.104,13 6,13.896 6,15 L6,16.064 L6,17 L26,17 L26,16.064 L26,15 C26,13.896 26.896,13 28,13 Z M8,15 C8,12.791 6.209,11 4,11 L4,9 C4,7.896 4.896,7 6,7 L26,7 C27.104,7 28,7.896 28,9 L28,11 C25.791,11 24,12.791 24,15 L8,15 Z"></path>
</svg>
